actions/22x22-dark/text_line_spacing.svg

<svg xmlns="http://www.w3.org/2000/svg" viewBox="0 0 22 22">
 <defs id="defs3051">
   <style type="text/css" id="current-color-scheme">
     .ColorScheme-Text {
       color:#f2f2f2;
     }
     </style>
 </defs>
   <path
      style="fill:currentColor;fill-opacity:1;stroke:none"
      d="m3 3v1h9v-1zm0 2v1h8v-1zm0 3v1h9v-1zm0 2v1h4v-1zm0 3v1h9v-1zm0 2v1h6v-1zm7 1v1h2v-1z"
      class="ColorScheme-Text" />
 <defs id="defs3051">
   <style type="text/css" id="current-color-scheme">
     .ColorScheme-Text {
       color:#3daee9;
     }
     </style>
 </defs>
   <path
      style="fill:currentColor;fill-opacity:1;stroke:none"
      d="m16 3-3 4h2v1 5 2h-2l3 4 3-4h-2v-3-1-3-1h2z"
      class="ColorScheme-Text" />
</svg>

<svg xmlns="http://www.w3.org/2000/svg" viewBox="0 0 22 22">
  <defs id="defs3051">
    <style type="text/css" id="current-color-scheme">
      .ColorScheme-Text {
        color:#f2f2f2;
      }
      .ColorScheme-Highlight {
        color:#3daee9;
      }
      </style>
  </defs>
 <path 
     style="fill:currentColor;fill-opacity:1;stroke:none" 
     d="M 3 3 L 3 4 L 12 4 L 12 3 L 3 3 z M 3 5 L 3 6 L 11 6 L 11 5 L 3 5 z M 3 8 L 3 9 L 12 9 L 12 8 L 3 8 z M 3 10 L 3 11 L 7 11 L 7 10 L 3 10 z M 3 13 L 3 14 L 12 14 L 12 13 L 3 13 z M 3 15 L 3 16 L 9 16 L 9 15 L 3 15 z M 10 16 L 10 17 L 12 17 L 12 16 L 10 16 z "
     class="ColorScheme-Text"
     />
 <path 
     style="fill:currentColor;fill-opacity:1;stroke:none" 
     d="M 16 3 L 13 7 L 15 7 L 15 8 L 15 13 L 15 15 L 13 15 L 16 19 L 19 15 L 17 15 L 17 12 L 17 11 L 17 8 L 17 7 L 19 7 L 16 3 z "
     class="ColorScheme-Highlight"
     />
</svg>
